X:0003
T:The Lads of the Village.
M:2/4
L:1/8
Q:1/4=104
I: :: ::
%% D ^F G A B c d e ^f g a
Z:Jack Campin * www.campin.me.uk * 2009
K:G
G2g>d|ecBG|a>cBG|FA`FD|G2 gd|ecBG|A>cBG|(D/G/``F/A/) G2:|
g>fgd|ecBG|g>fge|a>gfd|g>fgd|ecBG|A>cBG|(D/G/)(F/A/) G2:|
<end>
<start>
